!!!OTL: Péarla an bhrollaigh bh&szlig;in, S. 46
!!!id: I0538
**kern
*clefG2
*k[f#c#]
*D:
{8a
16b
16cc#
=1
8dd
8cc#
8b
8a
4.dd
8b
=2
8a
8f#
8e
8d
4.e
16f#
16g
=3
4a
8f#
8d
8g
8f#
8e
8d
=4
2d
4d
=5
16dddd
16dddd}
{8a
16b
16cc#
=6
8dd
8cc#
8b
8a
4.dd
8b
=7
8a
8f#
8e
8d
4.e
16f#
16g
=8
8a
8a
8f#
8d
8g
8f#
8e
8d
=9
2d
4d
=10
16eeee
16dddd}
{8a
8g
=11
8f#
8a
8b
8dd
4.cc#
8a
=12
8dd
8cc#
8b
8a
4.a
8a
=13
8b
8cc#
8dd
8ff#
8ee
8dd
8cc#
8a
=14
2a
16a
16d
16ffff#
16dddd}
{8a
16b
16cc#
=15
8d
8cc#
8b
8a
4.dd
8b
=16
8a
8f#
8e
8d
4e
8f#
8g
=17
4a
8f#
8d
8g
8f#
8e
8d
=18
2d
4d}
==
*-
!!!minrhy: 16
!!!meters: 4/4 ]  ZZ[4
!!!cut: Péarla an bhrollaigh bh&szlig;in, S. 46
!!!reg: Irland
!!!trd: O'SULLIVAN, Donal: Song of the Irish
!!!rhy1: X_XX  X_X_X_X_X__.X_  X_X_X_X_X__.XX  X__X_X_X_X_X_X_  X___X__
!!!rhy2: X_XX  X_X_X_X_X__.X_  X_X_X_X_X__.XX  X_X_X_X_X_X_X_X_  X___X__
!!!key: I0538  16  D 4/4 ]  ZZ[4
!!!mod: HEPTATONIK IONISCH] AMBITUS[10
!!!kad: 1151
!!!akz: +1+1525411_+1+1525411_37+156+255_1+1525411_
!!!fot: 'a__av_b__aw_
!!!for: 'a__b__c__d__
!!!fok: 'Md_Md_$__Sd_
!! PHRAS[AUFTAKTIG]
!!!fkt: Liebeslied
!! IRISCHE V
!! PR[15] 2K[13] 2G[34] 3K[1] 3G[0] 4A[0] 4Ü[0] 5A[0] 6K[0] 6G[0]
!! 7K[0] 7G[0] 8A[0] MEHR[0] SI[48] ABS[71] SR[46] SP[1]
!! ST[16] 2k[7] 2g[21] 3k[6] 3g[3] 4d[0] 4ü[0] 5d[0] 6k[0] 6g[0]
!! 7k[0] 7g[0] 8d[0] mehr[0] si[37] dm[+11] sr[28] sp[8]
!! 1F[6] 2F[22] 3F[42] 4F[0] LF[0] 2P[6] 3P[0] 4P[0] TRI[0] DF[5] AB[72]
!! TF[0] U3K[0] U3[0] U4[0] U4Ü[0] U5[7] U6K[0] U6[4] U7K[0] U7[11]
!! N1[29] N2K[0] N2[19] N3K[0] N3[7] N4[13] N4Ü[0] N5[10] N6K[0] N6[0]
!!!n7k: 0] N7[0] O1[0] O2K[0] O2[0] O3K[0] O3[0] HÖ[0
!!!RNB: symbol: &szlig; = sz ligature (UTF-8: ÃŸ)
